X:1
T:BWV 1004
T:J. S. Bach
T:Violin Sound
%%score { ( 1 3 ) | ( 2 4 ) }
L:1/8
Q:1/4=96
M:4/4
K:F
V:1 treble nm="ヴァイオリン"
V:3 treble 
V:2 treble 
V:4 treble 
V:1
"^Andante" D/ | D>E F/G/A/B/ ^C/B/A/G/ e>G | F/^C/D/A,/ B,/D/F/G/ C/A,/C/E/ (3A/G/F/(3G/F/E/ | %3
 F/D/F/A/ (3B/A/G/(3A/G/F/ E/G/B/d/ (3c/B/A/(3B/A/G/ | A/F/A/c/ f/g/a/c/ d/A/B/d/ g/a/b/d/ | %5
 e/B/c/G/ A/B/c/E/ F/A,/B,/G/ C/E/G/B/ | A/G/F/A/ d/F/E/D/ ^C/e/f/g/ A/g/f/e/ | %7
 f/e/d/E/ D/C/=B,/A,/ ^G,/=B/c/d/ E/d/c/B/ | c/=B/A/B/ c/f/4e/4d/c/ B/A/G/A/ B/e/4d/4c/B/ | %9
 A/G/F/G/4A/4 D/c/=B/A/ ^G/^F/E/F/ G/A/B/c/ | d/e/f/e/ d/c/=B/A/ ^g/a/=b/a/ g/^f/e/d/ | %11
 c/d/4e/4f/a/ =B/c/4d/4e/g/ A/B/4c/4d/f/ G/A/4B/4c/e/ | %12
 F/G/4A/4=B/d/ E/^F/4^G/4A/c/ D/^C/D/=F/ _B/c/d/B/ | F/E/F/B/ d/e/f/d/ B/A/B/d/ f/g/4a/4b/a/ | %14
 ^g/=b/4a/4g/f/4e/4 d/f/4e/4d/=B/4A/4 ^G/B/e/g/ b/e/d'/c'/4b/4 | %15
 c'/=b/4a/4^g/a/ (3c/d/e/(3d/c/=B/ A>B ^c/d/e/G/ | F/D/F/A/ d/f/^g/D/ [^ca]3 z/ D/ | %17
 D>E F/G/A/B/ ^C/B/A/G/ e>G | F/^C/D/A,/ B,/D/F/G/ C/A,/C/E/ (3A/G/F/(3G/F/E/ | %19
 F/D/F/A/ (3B/A/G/(3A/G/F/ E/G/B/d/ (3c/B/A/(3B/A/G/ | A/F/A/c/ f/g/a/c/ d/A/B/d/ g/a/b/d/ | %21
 e/B/c/G/ A/B/c/E/ F/A,/B,/G/ C/E/G/B/ | A/G/F/A/ d/F/E/D/ ^C/e/f/g/ A/g/f/e/ | %23
 f/e/d/E/ D/C/=B,/A,/ ^G,/=B/c/d/ E/d/c/B/ | c/=B/A/B/ c/f/4e/4d/c/ B/A/G/A/ B/e/4d/4c/B/ | %25
 A/G/F/G/4A/4 D/c/=B/A/ ^G/^F/E/F/ G/A/B/c/ | d/e/f/e/ d/c/=B/A/ ^g/a/=b/a/ g/^f/e/d/ | %27
 c/d/4e/4f/a/ =B/c/4d/4e/g/ A/B/4c/4d/f/ G/A/4B/4c/e/ | %28
 F/G/4A/4=B/d/ E/^F/4^G/4A/c/ D/^C/D/=F/ _B/c/d/B/ | F/E/F/B/ d/e/f/d/ B/A/B/d/ f/g/4a/4b/a/ | %30
 ^g/=b/4a/4g/f/4e/4 d/f/4e/4d/=B/4A/4 ^G/B/e/g/ b/e/d'/c'/4b/4 | %31
 c'/=b/4a/4^g/a/ (3c/d/e/(3d/c/=B/ A>B ^c/d/e/G/ | F/D/F/A/ d/f/^g/D/ [^ca]3 z/ e/ | %33
 e>f e/d/^c/=B/ A/G/4A/4_B/A/ G/F/E/F/ | G/F/E/D/ f/A/B/D/ C/G/B/_e/ A/c/f/e/ | %35
 d/A/B/d/ _E/G/A/=B/ c/d/_e/c/ (3a/g/^f/(3g/f/=e/ | %36
 ^f/c/4d/4_e/d/ c/B/4A/4d/c/ B/c/4d/4e/g/ A/B/4c/4d/=f/ | %37
 G/A/4B/4c/_e/ F/G/4A/4B/d/ _E/g/4f/4e/c/4B/4 A/c/4B/4A/^F/4=E/4 | %38
 D/^F/A/c/ (3_e/d/c/(3^f/=e/d/ b/a/4g/4f/g/ (3B/c/d/(3c/B/A/ | G>A B/c/d/F/ E/C/E/G/ B/e/4f/4g/B/ | %40
 A/F/A/c/ f/A/G/F/ C/G/c/d/ e/B/A/G/ | F/D/F/A/ d/F/E/D/ A,/E/A/B/ c/G/F/_E/ | %42
 D/B,/D/F/ B/A/G/F/ e/f/4g/4f/e/ d/c/B/g/ | A/4G/4F/4E/4F/B,/ C/E/G/A/ B/A/G/F/ a/e/f/d/ | %44
 =B/d/f/a/ g/e/^c/g/ D/A/c/g/ f/c/d/_B/ | G/B/d/f/ _e/c/A/e/ B,/F/A/e/ d/A/B/G/ | %46
 E/G/B/d/ c/A/^F/c/ B/A/G/=F/ _E/D/E/G/ | B/A/B/_e/ g/^f/g/b/ ^c/A/4=B/4c/=e/ G/_B/4A/4G/F/4E/4 | %48
 F/A/4G/4F/E/4D/4 A,/E/d/^c/ d3 z/ e/ | e>f e/d/^c/=B/ A/G/4A/4_B/A/ G/F/E/F/ | %50
 G/F/E/D/ f/A/B/D/ C/G/B/_e/ A/c/f/e/ | d/A/B/d/ _E/G/A/=B/ c/d/_e/c/ (3a/g/^f/(3g/f/=e/ | %52
 ^f/c/4d/4_e/d/ c/B/4A/4d/c/ B/c/4d/4e/g/ A/B/4c/4d/=f/ | %53
 G/A/4B/4c/_e/ F/G/4A/4B/d/ _E/g/4f/4e/c/4B/4 A/c/4B/4A/^F/4=E/4 | %54
 D/^F/A/c/ (3_e/d/c/(3^f/=e/d/ b/a/4g/4f/g/ (3B/c/d/(3c/B/A/ | G>A B/c/d/F/ E/C/E/G/ B/e/4f/4g/B/ | %56
 A/F/A/c/ f/A/G/F/ C/G/c/d/ e/B/A/G/ | F/D/F/A/ d/F/E/D/ A,/E/A/B/ c/G/F/_E/ | %58
 D/B,/D/F/ B/A/G/F/ e/f/4g/4f/e/ d/c/B/g/ | A/4G/4F/4E/4F/B,/ C/E/G/A/ B/A/G/F/ a/e/f/d/ | %60
 =B/d/f/a/ g/e/^c/g/ D/A/c/g/ f/c/d/_B/ | G/B/d/f/ _e/c/A/e/ B,/F/A/e/ d/A/B/G/ | %62
 E/G/B/d/ c/A/^F/c/ B/A/G/=F/ _E/D/E/G/ | B/A/B/_e/ g/^f/g/b/ ^c/A/4=B/4c/=e/ G/_B/4A/4G/F/4E/4 | %64
 F/A/4G/4F/E/4D/4 A,/E/d/^c/ !fermata!d3 z |[M:3/4][Q:1/4=144]"^Vivace" z4 z z/ A/ | %66
 A2 (3^CBA (3GFE | F2 (3A,GF (3ED^C | (3:2:2D2 B, (3:2:2G,2 F (3:2:2E2 D | %69
 (3:2:2^C2 A, (3:2:2C2 E (3:2:2A2 G | (3FDE (3FGA (3Bcd | (3:2:2c2 A (3:2:2F2 C (3:2:2A,2 _E | %72
 (3DB,C (3DEF (3GAB | (3AFG (3ABc (3d_ec | (3dBc (3def (3gab | (3:2:2E2 c (3:2:2g2 b (3:2:2a2 g | %76
 (3agf (3efg (3cde | (3fcB (3ABc (3FGA | (3:2:2D2 ^F (3:2:2A2 c (3:2:2B2 A | (3Bdc (3BAG (3FED | %80
 (3:2:2^C2 E (3:2:2A2 g (3:2:2f2 e | (3fAG (3FED (3C=B,A, | (3_A,de (3fed (3cd=B | %83
 (3A,cd (3edc (3=BcA | (3_ADE (3FED (3CD=B, | (3CEA (3cea (3=b^gd | (3f^cd (3B^GA (3F^CD | %87
 (3^G,=ba (3^g=fe (3dc=B | (3ced (3c=BA (3EA^G | A,4- A,3/2 A/ | A2 (3^CBA (3GFE | %91
 F2 (3A,GF (3ED^C | (3:2:2D2 B, (3:2:2G,2 F (3:2:2E2 D | (3:2:2^C2 A, (3:2:2C2 E (3:2:2A2 G | %94
 (3FDE (3FGA (3Bcd | (3:2:2c2 A (3:2:2F2 C (3:2:2A,2 _E | (3DB,C (3DEF (3GAB | (3AFG (3ABc (3d_ec | %98
 (3dBc (3def (3gab | (3:2:2E2 c (3:2:2g2 b (3:2:2a2 g | (3agf (3efg (3cde | (3fcB (3ABc (3FGA | %102
 (3:2:2D2 ^F (3:2:2A2 c (3:2:2B2 A | (3Bdc (3BAG (3FED | (3:2:2^C2 E (3:2:2A2 g (3:2:2f2 e | %105
 (3fAG (3FED (3C=B,A, | (3^G,de (3fed (3cd=B | (3A,cd (3edc (3=BcA | (3^GDE (3FED (3CD=B, | %109
 (3CEA (3cea (3=b^gd | (3f^cd (3B^GA (3F^CD | (3_A,=ba (3^g=fe (3dc=B | (3ced (3c=BA (3EA^G | %113
 A,4- A,3/2 e/ | e2 (3^Gfe (3d^c=B | (3^cAE (3A,BA (3FED | (3:2:2F2 d (3:2:2E2 g (3:2:2f2 e | %117
 (3:2:2f2 d (3:2:2A2 F (3:2:2D2 F | (3A,_ed (3cBA (3gfe | (3:2:2d2 B (3:2:2F2 D (3:2:2B,2 d | %120
 (3Fc'b (3agf (3_edc | (3BGA (3Bcd (3_ede | (3AFG (3ABc (3dcd | %123
 (3:2:2_E2 d (3:2:2g2 B (3:2:2c2 _e | (3^FAG (3F_ED (3CB,A, | (3B,DG (3Bdg (3dg^f | %126
 (3gdc (3BAG (3FED | (3:2:2E2 G (3:2:2B2 d (3:2:2c2 B | (3AFG (3A=B^c (3def | (3gag (3fed (3^c=BA | %130
 (3fgf (3edc (3BAG | (3efe (3dcB (3Ac_e | (3d_ed (3cBA (3^Gd=b | %133
 d/4^c/4d/4c/4d/4c/4d/4c/4 (3A,A=B (3cde | (3G^FG (3^CGA (3BAG | (3FGA (3Dde (3fga | %136
 (3c=Bc (3^Fcd (3_edc | (3c^FG (3_e^cd (3b^fg | [g^c'-]2 (3c'd'c' (3d'=c'b | (3agf (3efd (3Ad^c | %140
 (3:2:2d2 B ^G2- (3GA=B | (3^CEG B2- (3BAG | (3FA^c (3dfa (3A,D^C | D4- D3/2 e/ | %144
 e2 (3_Afe (3d^c=B | (3^cAE (3A,BA (3FED | (3:2:2F2 d (3:2:2E2 g (3:2:2f2 e | %147
 (3:2:2f2 d (3:2:2A2 F (3:2:2D2 F | (3A,_ed (3cBA (3gfe | (3:2:2d2 B (3:2:2F2 D (3:2:2B,2 d | %150
 (3Fc'b (3agf (3_edc | (3BGA (3Bcd (3_ede | (3AFG (3ABc (3dcd | %153
 (3:2:2_E2 d (3:2:2g2 B (3:2:2c2 _e | (3^FAG (3F_ED (3CB,A, | (3B,DG (3Bdg (3dg^f | %156
 (3gdc (3BAG (3FED | (3:2:2E2 G (3:2:2B2 d (3:2:2c2 B | (3AFG (3A=B^c (3def | (3gag (3fed (3^c=BA | %160
 (3fgf (3edc (3BAG | (3efe (3dcB (3Ac_e | (3d_ed (3cBA (3^Gd=b | %163
 d/4^c/4d/4c/4d/4c/4d/4c/4 (3A,A=B (3cde | (3G^FG (3^CGA (3BAG | (3FGA (3Dde (3fga | %166
 (3c=Bc (3^Fcd (3_edc | (3c^FG (3_e^cd (3b^fg | [g^c'-]2 (3c'd'c' (3d'=c'b | (3agf (3efd (3Ad^c | %170
 (3:2:2d2 B ^G2- (3GA=B | (3^CEG B2- (3BAG | (3FA^c (3dfa (3A,D^C | D4- D3/2 z/ |[M:3/4] z6 | %175
[M:3/4][Q:1/4=96]"^Andante" [df]2 B3 B | [Be]2 A3 A | AB BA Ad | %178
 d/c/B/A/ G2 G/4^F/4E/4D/4=E/4F/4G/4A/4 | Bd/c/ B/A/G/F/ E/D/^C/D/ | G,/E/^c/b/ a3 c | %181
 dA g2 g/f/e/f/ | d2 ^c=B c2 | [df]2 B3 B | [Be]2 A3 A | AB BA Ad | %186
 d/c/B/A/ G2 G/4^F/4E/4D/4=E/4F/4G/4A/4 | Bd/c/ B/A/G/F/ E/D/^C/D/ | G,/E/^c/b/ a3 c | %189
 dA g2 g/f/e/f/ | d2 ^c=B c2 | e3/2f/4g/4 d/4^c/4d/4c/4d/4c/4d/4c/4 d/4c/4d/4c/4{G}c | %192
 d/c/=B/c/ B-B/d/ e/g/f/a/4g/4 | g2 ge fg | ed/c/ b2- b/^g/^f/=g/ | %195
 g/4^f/4g/4f/4g/4f/4g/4f/4 gd _eB | cd/_e/ ^Fd c/B/A/G/ | c/_e/b/a/ B/d/a/g/ A/c/g/^f/ | %198
 g2 G,2- G,/G/4A/4B/4c/4d/4F/4 | b>a g/f/e/d/4c/4 c/4B/4c/4B/4c/4B/4A/ | Ac/=B/ Bc D>c | %201
 =Bd/^c/ cd E/>f/e/f/4d/4 | d/^c/e/A/ A/G/B/D/ D/^C/E/A,/ | [^ce]2 [df]4 | %204
 G,/B/_e/g/ e/B/G/_E/ b/^c/4d/4=e/G/ | F/A/d/a/ g/^c/d/f/ A/d/e/c/ | d>c B/A/G/F/ E/D/^C/D/4E/4 | %207
 e3/2f/4g/4 d/4^c/4d/4c/4d/4c/4d/4c/4 d/4c/4d/4c/4{G}c | d/c/=B/c/ B-B/d/ e/g/f/a/4g/4 | g2 ge fg | %210
 ed/c/ b2- b/^g/^f/=g/ | g/4^f/4g/4f/4g/4f/4g/4f/4 gd _eB | cd/_e/ ^Fd c/B/A/G/ | %213
 c/_e/b/a/ B/d/a/g/ A/c/g/^f/ | g2 G,2- G,/G/4A/4B/4c/4d/4F/4 | %215
 b>a g/f/e/d/4c/4 c/4B/4c/4B/4c/4B/4A/ | Ac/=B/ Bc D>c | =Bd/^c/ cd E/>f/e/f/4d/4 | %218
 d/^c/e/A/ A/G/B/D/ D/^C/E/A,/ | [^ce]2 [df]4 | G,/B/_e/g/ e/B/G/_E/ b/^c/4d/4=e/G/ | %221
 F/A/d/a/ g/^c/d/f/ A/d/e/c/ | d/D/F/A/ G/F/E/D/ C/B,/C/A,/ | B,/d/c/A/ B/^F/G/B/ d/f/e/^c/ | %224
 d/=B,/D/F/ _A/=B/d/e/ f/^c/d/A/ | A/B/4A/4G/F/ E/D/4^C/4D/_A,/ =A,/E/G/^c/ | d2 !fermata!D4 | %227
[M:12/8][Q:1/4=144]"^Vivace" z8 z2 z A | DFA def eg/f/e/d/ ^cAE | ^CEA efg fa/g/f/e/ dAF | %230
 Df/e/d/f/ b/a/g/f/e/d/ c/d/e/d/c/e/ a/g/f/e/d/c/ | %231
 B/c/d/c/B/d/ g/f/e/d/^c/=B/ A/B/c/B/A/c/ e/d/c/B/A/G/ | F/A/G/F/E/D/ A,d^c D>EF/G/ A/B/=c/d/e/f/ | %233
 g/e/c/G/E/G/ c/G/E/C/E/G/ A/G/F/G/A/B/ c/d/e/f/g/a/ | %234
 b/a/b/d'/e/g/ a/g/a/c'/d/f/ g/f/g/b/c/e/ f/e/f/a/g/f/ | %235
 e/d/e/f/e/d/ c/B/c/d/c/B/ A/B/c/f/c/A/ F/G/A/c/A/F/ | %236
 D/_E/F/B/F/D/ B,/C/D/F/D/B,/ G,/B,/D/G/B/d/ g/b/g/d/B/G/ | %237
 E/G/c/e/g/b/ c/B/c/b/c/b/ F/A/c/e/f/a/ c/B/c/a/c/a/ | %238
 E/G/c/e/g/b/ c/B/c/b/c/b/ F/A/c/e/f/a/ c/B/c/a/c/a/ | %239
 B/d/f/a/b/d'/ e/d/e/d'/e/d'/ A/c/e/g/a/c'/ d/c/d/c'/d/c'/ | %240
 G/B/d/f/g/b/ c/B/c/b/c/b/ F/A/c/e/f/a/ c/B/c/a/f/d/ | %241
 B/A/B/c/d/B/ G/F/G/A/B/G/ E/D/E/F/G/E/ C/E/G/c/e- | %242
 e/B/A/G/F/E/ D/^C/=B,/A,/G/E/ F/D/F/A/d/^c/ d/A/d/f/=b/a/ | %243
 =b/f/e/d/c/=B/ A/_A/^F/E/d/B/ c/=A/c/e/a/^g/ a/b/c'/g/a/c'/ | %244
 f/g/a/e/f/a/ d/e/f/^c/d/f/ ^G>A=B/=c/ d/e/f/d/=b/d/ | %245
 c/d/e/c/a/c/ =B/c/d/B/^g/B/ c/d/e/c/a/c/ d/e/f/d/=b/d/ | %246
 c/d/e/=B/c/A/ B/c/d/A/B/_A/ =A/A,/^C/E/G- G/E/C/A,/C/E/ | %247
 F/D/F/A/d/^c/ d/A/d/f/a/^g/ a/e/c/A/E/^C/ A,2 A | DFA def eg/f/e/d/ ^cAE | %249
 ^CEA efg fa/g/f/e/ dAF | Df/e/d/f/ b/a/g/f/e/d/ c/d/e/d/c/e/ a/g/f/e/d/c/ | %251
 B/c/d/c/B/d/ g/f/e/d/^c/=B/ A/B/c/B/A/c/ e/d/c/B/A/G/ | F/A/G/F/E/D/ A,d^c D>EF/G/ A/B/=c/d/e/f/ | %253
 g/e/c/G/E/G/ c/G/E/C/E/G/ A/G/F/G/A/B/ c/d/e/f/g/a/ | %254
 b/a/b/d'/e/g/ a/g/a/c'/d/f/ g/f/g/b/c/e/ f/e/f/a/g/f/ | %255
 e/d/e/f/e/d/ c/B/c/d/c/B/ A/B/c/f/c/A/ F/G/A/c/A/F/ | %256
 D/_E/F/B/F/D/ B,/C/D/F/D/B,/ G,/B,/D/G/B/d/ g/b/g/d/B/G/ | %257
 E/G/c/e/g/b/ c/B/c/b/c/b/ F/A/c/e/f/a/ c/B/c/a/c/a/ | %258
 E/G/c/e/g/b/ c/B/c/b/c/b/ F/A/c/e/f/a/ c/B/c/a/c/a/ | %259
 B/d/f/a/b/d'/ e/d/e/d'/e/d'/ A/c/e/g/a/c'/ d/c/d/c'/d/c'/ | %260
 G/B/d/f/g/b/ c/B/c/b/c/b/ F/A/c/e/f/a/ c/B/c/a/f/d/ | %261
 B/A/B/c/d/B/ G/F/G/A/B/G/ E/D/E/F/G/E/ C/E/G/c/e- | %262
 e/B/A/G/F/E/ D/^C/=B,/A,/G/E/ F/D/F/A/d/^c/ d/A/d/f/=b/a/ | %263
 =b/f/e/d/c/=B/ A/^G/^F/E/d/B/ c/A/c/e/a/^g/ a/b/c'/g/a/c'/ | %264
 f/g/a/e/f/a/ d/e/f/^c/d/f/ ^G>A=B/=c/ d/e/f/d/=b/d/ | %265
 c/d/e/c/a/c/ =B/c/d/B/^g/B/ c/d/e/c/a/c/ d/e/f/d/=b/d/ | %266
 c/d/e/=B/c/A/ B/c/d/A/B/^G/ A/A,/^C/E/=G- G/E/C/A,/C/E/ | %267
 F/D/F/A/d/^c/ d/A/d/f/a/^g/ a/e/c/A/E/^C/ A,2 e | A^ce GAB ^CE/D/C/=B,/ A,CE | %269
 G/A/B/A/G/B/ e/d/^c/=B/A/G/ F/E/F/G/A/F/ D>d=c/_B/ | %270
 A/c/B/A/G/^F/ _e/d/c/B/A/G/ F/A/G/F/E/D/ a/g/^f/=e/d/c/ | %271
 B/d/c/B/A/G/ c'/b/a/g/^f/e/ d/e/f/a/g/=f/ _e/d/c/B/A/G/ | %272
 ^F/A/d/^f/a/c'/ d/c/d/c'/d/c'/ G/B/d/f/g/b/ d/c/d/b/d/b/ | %273
 ^F/A/d/^f/a/c'/ d/c/d/c'/d/c'/ G/B/d/f/g/b/ d/c/d/b/d/b/ | %274
 C/_E/G/B/c/_e/ F/E/F/e/F/e/ B,/D/F/A/B/d/ E/D/E/d/E/d/ | %275
 A,/C/_E/G/A/c/ D/C/D/c/D/c/ G,/B,/D/^F/G/B/ D/F/G/B/d/g/ | %276
 _e/d/e/f/g/e/ c/B/c/d/e/c/ A/G/A/B/c/A/ ^F/A/d/^f/a/c'/ | %277
 b/a/c'/b/a/g/ d/g/^f/g/a/f/ g/_e/d/c/B/A/ B/G/A/B/c/d/ | %278
 e/f/g/e/B/e/ C/E/G/B/A/G/ A/B/c/A/F/A/ B,/D/F/A/F/D/ | %279
 ^c/d/e/c/G/c/ A,/^C/E/G/F/E/ F/D/F/A/d/c/ d/A/d/f/a/=c/ | %280
 B/a/g/f/e/d/ c/d/e/f/g/B/ A/g/f/e/d/c/ B/c/d/e/f/A/ | %281
 G/f/e/d/^c/=B/ A/B/c/d/e/G/ F/A/d/A/F/A/ D/F/A/F/D/F/ | %282
 B,/F/d/f/e/^c/ A,/F/d/f/e/c/ G,/F/d/f/e/d/ b/a/g/f/e/d/ | %283
 ^c/e/f/g/a/e/ d/c/=B/A/e/G/ F/G/A/F/d/F/ E/F/G/E/=c/E/ | %284
 D/E/F/D/B/D/ C/D/E/C/A/C/ B,/C/D/B,/G/D/ G/A/B/G/_e/G/ | %285
 A,/=B,/^C/A,/G/A,/ G/A/B/G/^c/G/ F/G/A/F/d/A/ d/e/f/d/=b/d/ | %286
 ^G/A/=B/^c/d/e/ f/e/d/c/d/G/ A/c/d/e/f/g/ a/b/e/f/g/c/ | %287
 d/D/F/A/d/e/ f/d/f/a/d'/^c'/ d'/a/f/d/A/F/ D2 e | A^ce GAB ^CE/D/C/=B,/ A,CE | %289
 G/A/B/A/G/B/ e/d/^c/=B/A/G/ F/E/F/G/A/F/ D>d=c/_B/ | %290
 A/c/B/A/G/^F/ _e/d/c/B/A/G/ F/A/G/F/E/D/ a/g/^f/=e/d/c/ | %291
 B/d/c/B/A/G/ c'/b/a/g/^f/e/ d/e/f/a/g/=f/ _e/d/c/B/A/G/ | %292
 ^F/A/d/^f/a/c'/ d/c/d/c'/d/c'/ G/B/d/f/g/b/ d/c/d/b/d/b/ | %293
 ^F/A/d/^f/a/c'/ d/c/d/c'/d/c'/ G/B/d/f/g/b/ d/c/d/b/d/b/ | %294
 C/_E/G/B/c/_e/ F/E/F/e/F/e/ B,/D/F/A/B/d/ E/D/E/d/E/d/ | %295
 A,/C/_E/G/A/c/ D/C/D/c/D/c/ G,/B,/D/^F/G/B/ D/F/G/B/d/g/ | %296
 _e/d/e/f/g/e/ c/B/c/d/e/c/ A/G/A/B/c/A/ ^F/A/d/^f/a/c'/ | %297
 b/a/c'/b/a/g/ d/g/^f/g/a/f/ g/_e/d/c/B/A/ B/G/A/B/c/d/ | %298
 e/f/g/e/B/e/ C/E/G/B/A/G/ A/B/c/A/F/A/ B,/D/F/A/F/D/ | %299
 ^c/d/e/c/G/c/ A,/^C/E/G/F/E/ F/D/F/A/d/c/ d/A/d/f/a/=c/ | %300
 B/a/g/f/e/d/ c/d/e/f/g/B/ A/g/f/e/d/c/ B/c/d/e/f/A/ | %301
 G/f/e/d/^c/=B/ A/B/c/d/e/G/ F/A/d/A/F/A/ D/F/A/F/D/F/ | %302
 B,/F/d/f/e/^c/ A,/F/d/f/e/c/ G,/F/d/f/e/d/ b/a/g/f/e/d/ | %303
 ^c/e/f/g/a/e/ d/c/=B/A/e/G/ F/G/A/F/d/F/ E/F/G/E/=c/E/ | %304
 D/E/F/D/B/D/ C/D/E/C/A/C/ B,/C/D/B,/G/D/ G/A/B/G/_e/G/ | %305
 A,/=B,/^C/A,/G/A,/ G/A/B/G/^c/G/ F/G/A/F/d/A/ d/e/f/d/=b/d/ | %306
 ^G/A/=B/^c/d/e/ f/e/d/c/d/G/ A/c/d/e/f/g/ a/b/e/f/g/c/ | %307
 d/D/F/A/d/e/ f/d/f/a/d'/^c'/ d'/a/f/d/A/F/ !fermata!D2 z | %308
[M:3/4][Q:1/4=96]"^Andante" z2 A3 [DFA] | [Be]2 e3 [^CGAe] | f2 d3 c | [GB]2 [FA]2 G/F/E/F/ | %312
 G/E/F/D/ A3 [DFA] | [Be]2 e3 [^CGAe] | f2 d3 [B,Fd] | b2 a3/2g/4f/4 g>e | f3/2 z/ z4 | %317
 e z e z z2 | e z d>f e>d | [A,d] z ^c z z3/2 [A,ca]/ | [Ddf] z z4 | [DBe] z [^CAe] z z2 | %322
 [Ae] z d>f e>^c | d>e d2 ^c>d | d>e f3/2g/4a/4 b>f | e>b a>g a>^f | g>f e3/2d/4^c/4 d>e | %327
 f>g e>f g>e | f3/2d/4e/4 f3/2g/4a/4 b>f | e>b a>g a>^f | g>f e3/2d/4^c/4 d>e | %331
 f>g d3/2^c/4=B/4 c>G | Ff ed ^cd | GA/B/ ^CB AG | FG/A/ B,D Gd/^c/ | dF E/F/G/B/ A/G/F/E/ | %336
 F/A/d/f/ f/e/g/f/ e/d/^c/d/ | G/B/^F/G/ ^C/E/G/B/ A/G/e/G/ | F/^C/D/A,/ B,/D/G/A/ B/_e/^c/d/ | %339
 _A/=B/d/f/ e/g/^c/d/ A,/E/d/c/ | df ba ^gD | ^Ce ag ^f=C | =B,d gf e_B, | A,/f/e/d/ ^cA eG | %344
 F/D/F/A/ d/f/b/a/ ^g/=b/_a/e/ | ^c/e/a/g/ ^f/a/f/=c/ A/^F/D/C/ | %346
 =B,/D/G/^F/ G/_e/d/^c/ b/a/^g/a/ | f/e/d/c/ B/A/^G/A/ ^C/=G/F/E/ | F/D/E/F/ G/A/=B/^c/ d/F/E/D/ | %349
 A,/E/d/^c/ D/^F/A/=c/ c/B/c/A/ | B/G/F/_E/ D/C/B,/A,/ G,/G/_e/d/ | ^c/e/A/G/ F/d/E/D/ A,/E/d/c/ | %352
 g/e/f/^c/ d/=c/B/A/ G/F/E/D/ | ^C/B/A/G/ ^F/D/A/D/ =C/B,/C/A,/ | B,/G,/A,/B,/ C/D/E/^F/ G/A/B/A/ | %355
 ^G/A/E/F/ =G/^C/D/_A,/ =A,/F/E/C/ | D/d/A/G/ F/E/D/C/ B,/d/G/F/ | E/c/G/F/ E/D/C/B,/ A,/c/F/_E/ | %358
 D/B/F/_E/ D/C/B,/A,/ G,/B/=E/D/ | ^C/A,/C/E/ A/E/A/^c/ e/G/A/E/ | F/D/F/A/ d/A/d/f/ B/g/a/b/ | %361
 e/C/E/G/ c/G/c/e/ A/f/g/a/ | d/B,/D/F/ B/F/B/d/ G/e/f/g/ | ^c/A/c/e/ a/e/a/^c'/ e'/g/f/e/ | %364
 f z z f g z | e z z e f z | d z z d e z | Ad [A,E]a a/g/a/e/ | f z d z z2 | [ce] z c z z2 | %370
 d z B z z2 | A,/E/^c/g/ A,/F/d/f/ A,/G/c/e/ | d/A/4G/4F/E/ D/C/B,/A,/ B,/d/4c/4B/4A/4G/4F/4 | %373
 E/G/4F/4E/D/ C/B,/A,/G,/ A,/c/4B/4A/4G/4F/4_E/4 | %374
 D/F/4_E/4D/C/ B,/D/4C/4B,/A,/ G,/B/4A/4G/4F/4=E/4D/4 | %375
 ^C/4=B,/4A,/4B,/4C/4D/4E/4F/4 G/4A/4B/4A/4G/4F/4E/4D/4 C/e/4d/4^c/4=B/4A/4G/4 | %376
 F/D/4E/4F/A/ F/D/F/A/ B/4c/4d/4e/4f/4g/4a/4b/4 | e/C/4D/4E/G/ E/C/E/G/ A/4B/4c/4d/4e/4f/4g/4a/4 | %378
 d/B,/4C/4D/F/ D/B,/D/F/ G/4A/4B/4c/4d/4e/4f/4g/4 | %379
 ^c/4b/4a/4g/4f/4e/4d/4=c/4 B/4A/4G/4F/4E/4D/4^C/4=B,/4 A,/4B,/4C/4D/4E/4F/4G/4E/4 | %380
 F/4D/4E/4F/4G/4A/4=B/4^c/4 d/4B/4c/4d/4e/4f/4g/4a/4 b/D/C/B,/ | %381
 C/4D/4E/4^F/4G/4A/4B/4c/4 d/4A/4B/4c/4d/4e/4^f/4g/4 a/C/B,/A,/ | %382
 B,/4D/4E/4^F/4G/4A/4B/4c/4 d/4G/4A/4B/4c/4d/4e/4^f/4 g/4a/4b/4a/4g/4=f/4e/4d/4 | %383
 ^c/4a/4g/4f/4e/4d/4c/4=B/4 A/4B/4c/4d/4e/4f/4g/4a/4 b/4g/4e/4c/4A/4G/4F/4E/4 | %384
 D/A/d/e/ f/d/B/A/ ^G/=B/d/f/ | C/E/A/c/ e/c/A/G/ ^F/A/c/_e/ | B,/D/G/B/ d/B/G/F/ E/G/B/^c/ | %387
 A,/D/F/A/ d/A/F/D/ A,/E/G/^c/ | D/b/b/^g/ g/f/f/d/ d/B/^G/E/ | ^C/a/a/^f/ f/_e/e/c/ c/A/^F/D/ | %390
 =B,/g/g/_e/ e/^c/c/B/ B/G/E/^C/ | A,/^C/C/E/ E/G/4F/4G/B/4A/4 B/^c/4d/4e/G/ | %392
 F/4A/4=B/4^c/4d/4c/4B/4A/4 f/4e/4d/4c/4d/4e/4f/4g/4 a/4g/4f/4e/4b/4a/4g/4f/4 | %393
 c/4e/4^f/4^g/4a/4g/4f/4e/4 c'/4=b/4a/4g/4a/4b/4c'/4d'/4 e'/4d'/4c'/4b/4f'/4e'/4d'/4^c'/4 | %394
 d'/4e'/4f'/4e'/4d'/4f'/4e'/4d'/4 f'/4e'/4d'/4f'/4e'/4d'/4f'/4e'/4 d'/4g'/4f'/4e'/4d'/4c'/4b/4a/4 | %395
 g/4a/4b/4a/4g/4b/4a/4g/4 b/4a/4g/4b/4a/4g/4b/4a/4 g/4f/4e/4d/4^c/4=B/4A/4G/4 | %396
 F/4D/4a/4D/4F/4D/4a/4D/4 F/4D/4a/4D/4F/4D/4a/4D/4 F/4D/4a/4D/4F/4D/4a/4D/4 | %397
 E/4D/4g/4D/4E/4D/4g/4D/4 E/4D/4g/4D/4E/4D/4g/4D/4 E/4^c/4g/4c/4E/4c/4g/4c/4 | %398
 D/4D/4g/4D/4D/4D/4g/4D/4 D/4D/4g/4D/4D/4D/4g/4D/4 D/4A/4f/4A/4D/4A/4f/4A/4 | %399
 G,/4B/4e/4B/4G,/4A/4f/4A/4 G,/4G/4e/4G/4G,/4F/4d/4F/4 A,/4E/4d/4E/4A,/4E/4^c/4E/4 | %400
 D/4F/4d/4F/4D/4F/4d/4F/4 A,/4F/4d/4F/4A,/4F/4d/4F/4 B,/4F/4d/4F/4B,/4F/4d/4F/4 | %401
 C/4^F/4_e/4F/4C/4F/4e/4F/4 B,/4F/4e/4F/4B,/4F/4e/4F/4 A,/4F/4e/4F/4A,/4F/4e/4F/4 | %402
 B,/4G/4d/4G/4B,/4G/4d/4G/4 A,/4F/4d/4F/4A,/4F/4d/4F/4 G,/4F/4d/4F/4G,/4F/4d/4F/4 | %403
 A,/4F/4d/4F/4A,/4F/4d/4F/4 A,/4E/4d/4E/4A,/4E/4d/4E/4 A,/4G/4^c/4G/4A,/4G/4c/4G/4 | %404
 D/4F/4d/4F/4D/4F/4d/4F/4 D/4F/4A/4F/4D/4F/4A/4F/4 D/4F/4B/4F/4D/4F/4B/4F/4 | %405
 D/4^F/4c/4F/4D/4F/4c/4F/4 D/4F/4B/4F/4D/4F/4B/4F/4 D/4F/4A/4F/4D/4F/4A/4F/4 | %406
 D/4G/4B/4G/4D/4G/4B/4G/4 E/4^c/4b/4c/4E/4c/4b/4c/4 F/4d/4a/4d/4F/4d/4a/4d/4 | %407
 G/4d/4g/4d/4G/4d/4g/4d/4 A/4d/4e/4d/4A/4d/4e/4d/4 A/4^c/4e/4c/4A/4c/4e/4c/4 | %408
 D/4d/4f/4d/4D/4d/4f/4d/4 D/4A/4f/4A/4D/4A/4f/4A/4 D/4B/4f/4B/4D/4B/4f/4B/4 | %409
 D/4c/4^f/4c/4D/4c/4f/4c/4 D/4B/4f/4B/4D/4B/4f/4B/4 D/4A/4f/4A/4D/4A/4f/4A/4 | %410
 D/4B/4g/4B/4D/4B/4g/4B/4 D/4A/4g/4A/4D/4A/4g/4A/4 (6:4:6^C/4G/4A/4e/4A/4G/4(6:4:6C/4G/4A/4e/4A/4G/4 | %411
 (6:4:6D/4F/4A/4f/4A/4F/4(6:4:6D/4F/4A/4f/4A/4F/4 A,/4E/4^c/4E/4A,/4E/4c/4E/4 A,/4E/4c/4E/4A,/4E/4c/4E/4 | %412
 D/4F/4d/4F/4D/4F/4d/4F/4 (6:4:6D/4D/4A/4f/4A/4D/4(6:4:6D/4D/4A/4f/4A/4D/4 (6:4:6D/4A/4c/4f/4c/4A/4(3D/4A/4c/4f/8c/8A/8A,/8 | %413
 (6:4:6G,/4G/4B/4f/4B/4G/4(6:4:6G,/4G/4B/4f/4B/4G/4 (6:4:6G,/4G/4B/4e/4B/4G/4(6:4:6G,/4G/4B/4e/4B/4G/4 A,/4F/4_e/4F/4A,/4F/4e/4F/4 | %414
 B,/4F/4_e/4F/4B,/4F/4e/4F/4 (6:4:6B,/4F/4d/4b/4d/4F/4(6:4:6B,/4F/4d/4b/4d/4F/4 (6:4:6B,/4F/4d/4=e/4d/4F/4(6:4:6B,/4F/4d/4e/4d/4F/4 | %415
 (6:4:6A,/4A/4d/4e/4d/4A/4(6:4:6A,/4A/4d/4e/4d/4A/4 (6:4:6A,/4E/4^c/4a/4c/4E/4(6:4:6A,/4E/4c/4a/4c/4E/4 (6:4:6A,/4E/4c/4a/4c/4E/4(6:4:6A,/4E/4c/4a/4c/4E/4 | %416
 (6:4:6D/4D/4A/4f/4A/4D/4(6:4:6D/4D/4A/4f/4A/4D/4 (6:4:6D/4A/4d/4^f/4d/4A/4(6:4:6D/4A/4d/4f/4d/4A/4 (6:4:6D/4A/4d/4f/4d/4A/4(6:4:6D/4A/4d/4f/4d/4A/4 | %417
 D/4B/4g/4B/4D/4B/4g/4B/4 D/4=B/4^g/4B/4D/4B/4g/4B/4 E/4d/4g/4d/4E/4d/4g/4d/4 | %418
 F/4c/4a/4c/4F/4c/4a/4c/4 ^F/4_e/4c'/4e/4F/4e/4c'/4e/4 G/4d/4=b/4d/4G/4d/4b/4d/4 | %419
 _A/4f/4d'/4f/4A/4f/4d'/4f/4 =A/4e/4d'/4e/4A/4e/4d'/4e/4 A/4e/4^c'/4e/4A/4e/4c'/4e/4 | %420
 D/4f/4d'/4f/4D/4f/4d'/4f/4 B/4f/4d'/4f/4B/4f/4d'/4f/4 A/4f/4d'/4f/4A/4f/4d'/4f/4 | %421
 _A/4e/4d'/4e/4A/4e/4d'/4e/4 =A/4e/4^c'/4e/4A/4e/4c'/4e/4 G/4e/4c'/4e/4G/4e/4c'/4e/4 | %422
 ^F/4d/4c'/4d/4F/4d/4c'/4d/4 G/4d/4=b/4d/4G/4d/4b/4d/4 =F/4d/4b/4d/4F/4d/4b/4d/4 | %423
 E/4^c/4b/4c/4E/4c/4b/4c/4 F/4d/4a/4d/4F/4d/4a/4d/4 E/4c/4g/4c/4E/4c/4g/4c/4 | %424
 D/4d/4^f/4d/4D/4d/4f/4d/4 (6:4:6A,/4A/4c/4=f/4c/4A/4(6:4:6A,/4A/4c/4f/4c/4A/4 (6:4:6=B,/4G/4d/4f/4d/4G/4(6:4:6B,/4G/4d/4f/4d/4G/4 | %425
 (6:4:6C/4G/4c/4e/4c/4G/4(6:4:6C/4G/4c/4e/4c/4G/4 G,/4G/4_e/4G/4G,/4G/4e/4G/4 A,/4F/4e/4F/4A,/4F/4e/4F/4 | %426
 B,/4F/4d/4F/4B,/4F/4d/4F/4 B,/4G/4d/4G/4B,/4G/4d/4G/4 A,/4F/4d/4F/4A,/4F/4d/4F/4 | %427
 _A,/4E/4d/4E/4A,/4E/4d/4E/4 =A,/4E/4d/4E/4A,/4E/4d/4E/4 A,/4E/4^c/4E/4A,/4E/4c/4E/4 | %428
 Df/4e/4d/4e/4 d/4c/4d/4c/4B/4c/4B/4A/4 B/4c/4d/4e/4f/D/ | %429
 Ce/4d/4c/4d/4 c/4B/4c/4B/4A/4B/4A/4G/4 A/4B/4c/4d/4_e/C/ | %430
 B,d/4c/4B/4c/4 B/4A/4B/4A/4G/4A/4G/4F/4 G/4A/4B/4c/4d/B,/ | %431
 A,/4A/4=B/4^c/4d/A,/ G,/4A/4B/4c/4d/G,/ A,/4d/4c/4B/4c/G/ | F/E/D/^C/ D/F/G/A/ B/A/B/G/ | %433
 e2 e3 [^CGAe] | f2 d3 [B,Fd] | b2 a2 g2 | g2 ^f2 z =f | f2 e2 z _e | _e2 d2 z d | z d c3 d | %440
[K:D] d2 F3 G | [CE]2 [A,F]3 G/A/ | D2 E3 F/G/ | FE E3 A | F2 BA GF | FB, F/G/A/G/ FE | %446
 D2 EG/F/ ED | cd E3 A | FE DE F^G | AB cd Bc | df ed cB | AB cd ec | d2 [df]3 [df] | e2 a3 g | %454
 fe gf ba | gf e4 | d/c/B/A/ ^G/B/d/f/ ee | [Ace] z z2 Fe | [Fd] z z2 Ed | %459
 c/B/A/B/ c/e/g/b/ a/g/f/e/ | f/a/f/d/ A/d/A/F/ D/F/E/D/ | C/a/e/c/ A/c/A/E/ C/E/D/C/ | %462
 B,/^g/d/B/ ^G/B/G/E/ B,/D/C/B,/ | A,/B,/C/D/ E/C/A,/C/ E/G/F/E/ | F/D/A,/D/ F/D/A/F/ d/A/f/d/ | %465
 a/e/c/e/ a/e/c'/a/ e'/c'/f'/c'/ | d'/f'/d'/b/ f/b/d/f/ B/d/c/B/ | c/e/c/A/ E/A/C/E/ A,/C/E/G/ | %468
 F/D/a/a/ a/f/d/A/ F/D/A,/D/ | E/C/a/a/ a/e/c/A/ E/C/A,/C/ | D/B,/a/a/ a/f/d/B/ d/^g/b/g/ | %471
 a/e/a/a/ a/c/e/e/ e/A/c/G/ | F/D/A/A/ A/F/D/F/ A/d/f/B,/ | C/E/A/A/ A/E/C/E/ A/c/e/A,/ | %474
 B,/D/A/A/ A/D/B,/D/ ^G/B/d/E/ | A,/E/A/A/ A/E/A/c/ e/c/A/G/ | z2 z/ a/a/f/ f/d/d/f/ | %477
 e/ z/ z z/ a/a/e/ e/c/c/e/ | d/ z/ z z/ b/b/^g/ g/e/e/g/ | a/ z/ z z/ a/a/a/ a/g/g/g/ | %480
 f/D/D/D/ D/A/A/A/ B/B/c/c/ | d/ z/ z D/d'/d'/d'/ d'/=c'/c'/c'/ | b/D/D/D/ D/b/b/b/ c'/d'/d'/d'/ | %483
 g/g/g/g/ f/[df]/[df]/[df]/ e/e/e/e/ | f2 f3 f | fe e3 e | ed =c3 c | =cB z b ag | %488
 [df]2 [df]3 [df] | [de]2 [ce]3 [ce] | af ba gf | ed c3 d | [Fd]2 [FA]3 [FA] | [FA]2 [FA]3 [=CFA] | %494
 B2 B3 B | cd d3 c | d2 [df]3 [df] | [Af]2 [Af]3 [Af] | g2 [Ae]3 [Ae] | ed d3 c | d2 [df]3 [df] | %501
 g2 a3 a | b2 b3 b | c'd' d'2 c'2 | d'2 d'3 d' | c'2 =c'3 c' | b2 e3 e | ef gb ag | %508
 [Ddf]2 D/[Af]/[Af]/D/ [CD]/[Af]/[Af]/[CD]/ | %509
 [B,D]/[Bf]/[Bf]/[B,D]/ [B,D]/[Bf]/[Bf]/[B,D]/ [A,D]/[Bf]/[Bf]/[A,D]/ | %510
 [G,D]/[Be]/[Be]/[G,D]/ [G,E]/[ca]/[ca]/[G,E]/ [G,E]/[Ec]/[Ec]/[G,E]/ | %511
 [_A,E]/[db]/[db]/[A,E]/ [=A,E]/[de]/[df]/[A,E]/ [A,E]/[cg]/[cg]/[A,E]/ | %512
 D/[dg]/[dg]/D/ D/[Af]/D/[Bf]/ D/[cf]/[cf]/D/ | %513
 [G,D]/[Bf]/[Bf]/[G,D]/ [G,E]/[Be]/[ce]/[G,E]/ [_A,E]/[de]/[de]/[A,E]/ | %514
 [A,E]/[de]/[de]/[A,E]/ [A,E]/[ce]/[A,F]/[ce]/ [_B,G]/[ce]/[ce]/[B,G]/ | %515
 [B,F]/[Fd]/ [G,E]/[db]/ c3 d |[K:F] d2 B3 [DFB] | B>e B/G/A/E/ CA | A>d A/^F/G/D/ B,G | %519
 G>e ^c/A/_B/G/ ^CA | F>D F/A/d/^c/ d/e/f/A/ | f>D G/B/_e/d/ e/c/F/A,/ | %522
 _e>^c d/A/B/^F/ G/D/_E/G/ | ^cd d>=B c/e/g/A/ | D/A/^c/g/ f/d/c/d/ D/d/c/d/ | %525
 E/G/^c/a/ g/d/c/d/ E/d/c/d/ | F/A/^c/b/ a/d/c/d/ F/d/c/d/ | G/B/d/b/ e/d/^c/d/ A/d/c/e/ | %528
 f/d/A/G/ F/A/D/C/ =B,/G/d/f/ | e/c/G/F/ E/G/C/B,/ A,/F/c/_e/ | d/B/F/_E/ D/F/B,/A,/ G,/^C/=E/B/ | %531
 A/F/D/B/ G/E/^C/E/ A,/G/F/E/ | D/A/=B/^c/ d/f/g/a/ b/G/4F/4E/4F/4G/ | %533
 C/G/A/B/ c/e/f/g/ a/F/4E/4D/4E/4F/ | B,/d'/4c'/4b/4c'/4d'/ g/b/4a/4g/4a/4b/ e/g/4f/4e/4f/4g/ | %535
 ^c/e/4d/4c/4d/4e/4c/4 G/B/4A/4G/4A/4B/4G/4 E/4D/4^C/4D/4E/4F/4G/4E/4 | %536
 F/A/ z/ A/ z/ A/ z/ A/ z/ A/ z/ A/ | E/A/ z/ A/ z/ A/ z/ A/ z/ A/ z/ A/ | %538
 D/A/ z/ A/ z/ A/ z/ A/ z/ A/ z/ A/ | E/A/ z/ A/ z/ A/ z/ A/ z/ A/ z/ A/ | %540
 F/A/ z/ A/ z/ A/ z/ A/ z/ A/ z/ A/ | E/A/ z/ A/ z/ A/ z/ A/ z/ A/ z/ A/ | %542
 D/A/ z/ A/ z/ A/ z/ A/ z/ A/ z/ A/ | z/ A/ z/ A/ z/ A/ z/ A/ z/ A/ z/ A/ | %544
 z/ A/ z/ A/ z/ A/ z/ A/ z/ A/ z/ A/ | z/ A/ z/ A/ z/ A/ z/ A/ z/ A/ z/ A/ | %546
 z/ A/ z/ A/ z/ A/ z/ A/ z/ A/ z/ A/ | z/ A/ z/ A/ z/ A/ z/ A/ z/ A/ z/ A/ | %548
 F/A/(3D/F/A/ (3F/A/d/(3A/d/f/ (3B/d/g/(3G/d/b/ | %549
 (3E/c/b/(3C/E/G/ (3E/G/c/(3G/c/e/ (3A/c/f/(3F/c/b/ | %550
 (3D/B/a/(3B,/D/F/ (3D/F/B/(3F/B/d/ (3G/B/_e/(3_E/B/g/ | %551
 (3E/^c/b/(3F/d/a/ (3G/e/g/(3_A/d/f/ (3=A/d/e/(3A/c/e/ | %552
 (3D/a/g/(3f/f/e/ (3d/d/c/(3B/B/A/ (3G/B/c/(3d/e/f/ | %553
 (3C/g/f/(3e/e/d/ (3c/c/B/(3A/A/G/ (3F/A/B/(3c/d/_e/ | %554
 (3B,/f/_e/(3d/d/c/ (3B/B/A/(3G/G/F/ (3E/E/D/(3^C/C/=B,/ | %555
 A,/=B,/4^C/4D/4E/4F/4G/4 A/4=B/4^c/4d/4e/4f/4g/4f/4 e/4d/4c/4B/4A/4G/4F/4E/4 | D z A3 [DFA] | %557
 e2 e3 [^CGAe] | f2 d3 c | [GB]2 [FA]2 G/F/E/F/ | G/E/F/D/ B2 A2 | d2 c2 B2 | %562
 ^C/E/G/B/ A/G/e/G/ F2 | FE E3 D | !fermata!D6 |] %565
V:2
 z/ | D3/2 z/ z2 z4 | z8 | z8 | z8 | z8 | z8 | z8 | z8 | z8 | z8 | z8 | z8 | z8 | z8 | z8 | %16
 z4 [A,E]2 z2 | D3/2 z/ z2 z4 | z8 | z8 | z8 | z8 | z8 | z8 | z8 | z8 | z8 | z8 | z8 | z8 | z8 | %31
 z8 | z4 [A,E]2 z3/2 z/ | e3/2 z/ z2 z4 | z8 | z8 | z8 | z8 | z8 | z8 | z8 | z8 | z8 | z8 | z8 | %45
 z8 | z8 | z8 | z4 D3 z/ z/ | e3/2 z/ z2 z4 | z8 | z8 | z8 | z8 | z8 | z8 | z8 | z8 | z8 | z8 | %60
 z8 | z8 | z8 | z8 | z4 !fermata!D3 z |[M:3/4] z6 | [DF]2 z4 | D2 z4 | z6 | z6 | z6 | z6 | z6 | %73
 z6 | z6 | z6 | z6 | z6 | z6 | z6 | z6 | z6 | z6 | z6 | z6 | z6 | z6 | z6 | z6 | z6 | [DF]2 z4 | %91
 D2 z4 | z6 | z6 | z6 | z6 | z6 | z6 | z6 | z6 | z6 | z6 | z6 | z6 | z6 | z6 | z6 | z6 | z6 | z6 | %110
 z6 | z6 | z6 | z4 z3/2 z/ | [A^c]2 z4 | z6 | z6 | z6 | z6 | z6 | z6 | z6 | z6 | z6 | z6 | z6 | %126
 z6 | z6 | z6 | z6 | z6 | z6 | z6 | A2 z4 | z6 | z6 | z6 | z6 | A2 z4 | z6 | z6 | z6 | z6 | z6 | %144
 [A^c]2 z4 | z6 | z6 | z6 | z6 | z6 | z6 | z6 | z6 | z6 | z6 | z6 | z6 | z6 | z6 | z6 | z6 | z6 | %162
 z6 | A2 z4 | z6 | z6 | z6 | z6 | A2 z4 | z6 | z6 | z6 | z6 | z6 |[M:3/4] z6 |[M:3/4] [DA]2 G3 z | %176
 [^CG]2 G3 z | [DF]2 [CE]2 [B,D]2 | _E z A,4 | [G,D] z z4 | z4 z G | F2 [E^c]2 [Dd]2 | [Ae]6 | %183
 [DA]2 G3 z | [^CG]2 G3 z | [DF]2 [CE]2 [B,D]2 | _E z A,4 | [G,D] z z4 | z4 z G | F2 [E^c]2 [Dd]2 | %190
 [Ae]6 | [A^c]2 G4 | ^F z =F z z2 | [Ec]2 [Dc]2 [G=B]2 | [CGc] z z4 | c2 B z G z | z6 | z6 | z6 | %199
 [Ec]3/2 z/ z4 | F z ^F z z2 | G z _A z z2 | z6 | [B,G]2 [A,A]4 | z6 | z6 | z6 | [A^c]2 G4 | %208
 ^F z =F z z2 | [Ec]2 [Dc]2 [G=B]2 | [CGc] z z4 | c2 B z G z | z6 | z6 | z6 | [Ec]3/2 z/ z4 | %216
 F z ^F z z2 | G z _A z z2 | z6 | [B,G]2 [A,A]4 | z6 | z6 | z6 | z6 | z6 | z6 | z6 |[M:12/8] z12 | %228
 z12 | z12 | z12 | z12 | z12 | z12 | z12 | z12 | z12 | z12 | z12 | z12 | z12 | z12 | z12 | z12 | %244
 z12 | z12 | z12 | z12 | z12 | z12 | z12 | z12 | z12 | z12 | z12 | z12 | z12 | z12 | z12 | z12 | %260
 z12 | z12 | z12 | z12 | z12 | z12 | z12 | z12 | z12 | z12 | z12 | z12 | z12 | z12 | z12 | z12 | %276
 z12 | z12 | z12 | z12 | z12 | z12 | z12 | z12 | z12 | z12 | z12 | z12 | z12 | z12 | z12 | z12 | %292
 z12 | z12 | z12 | z12 | z12 | z12 | z12 | z12 | z12 | z12 | z12 | z12 | z12 | z12 | z12 | z12 | %308
[M:3/4] z2 [DF]4 | [DG]2 [^CGA]4 | [DFA]2 [B,F]4 | G,2 A,2 ^C2 | D z [DF]4 | [DG]2 [^CGA]4 | %314
 [DFA]2 [B,F]4 | E2 E3/2 z/ z2 | D>E F3/2G/4A/4 B>A | G>F G>A A>G | F>E F>A G>F | E>D E>G F>E | %320
 D>E F3/2G/4A/4 B>A | G>F G>B A>G | F>E F>A G>E | A,>G, A,4 | D z z4 | ^c2 =c2 z z/ c/ | %326
 =B2 _B2 z z/ B/ | A>=B ^c>d e>c | d3/2 z/ z2 z z/ d/ | ^c2 =c2 z z/ c/ | =B2 _B2 z z/ [^Gd]/ | %331
 A2 [Ae]2 z z/ A,/ | D z z4 | D z z4 | D z z4 | z G, A, z z2 | D/ z/ z z4 | z2 z4 | z2 z4 | z2 z4 | %340
 z2 z4 | z2 z4 | z2 z4 | z2 z4 | z2 z4 | z2 z4 | z2 z4 | z2 z4 | z2 z4 | z2 z4 | z2 z4 | z2 z4 | %352
 z2 z4 | z2 z4 | z2 z4 | z2 z4 | z2 z4 | z2 z4 | z2 z4 | z2 z4 | z2 z4 | z2 z4 | z2 z4 | z2 z4 | %364
 dA Dd B/A/B/G/ | cG Cc A/G/A/F/ | dA Dd B/A/B/G/ | F/E/F/D/ d/^c/d/=B/ c z | %368
 d/^c/d/A/ F/E/F/D/ B,/G/d/b/ | c/=B/c/G/ E/D/E/C/ A,/F/c/a/ | F/_E/F/D/ D/C/D/B,/ G,/=E/=B/g/ | %371
 z2 z4 | D/ z/ z z4 | C/ z/ z z4 | B,/ z/ z z4 | z2 z4 | z2 z4 | z2 z4 | z2 z4 | z2 z4 | z2 z4 | %381
 z2 z4 | z2 z4 | z2 z4 | z2 z4 | z2 z4 | z2 z4 | z2 z4 | z2 z4 | z2 z4 | z2 z4 | z2 z4 | z2 z4 | %393
 z2 z4 | z2 z4 | z2 z4 | z2 z4 | z2 z4 | z6 | z2 z4 | z2 z4 | z2 z4 | z2 z4 | z2 z4 | z2 z4 | %405
 z2 z4 | z2 z4 | z2 z4 | z2 z4 | z2 z4 | z2 z4 | z2 z4 | z6 | z6 | z6 | z6 | z6 | z6 | z6 | z6 | %420
 z6 | z6 | z6 | z6 | z6 | z6 | z6 | z6 | z6 | z6 | z6 | z6 | z6 | [DGB]2 [^CGA]4 | [DFA]2 [B,F]4 | %435
 [G,Gd]2 [A,Fd]2 [A,E^c]2 | [DAd]2 [DAd]2 C z | [=B,Gd]2 [CGc]2 _B, z | [A,F]2 [B,F]2 A, z | %439
 _A, z [=A,E]4 |[K:D] D2 D4 | C2 A,4 | B,2 G,4 | A,2 C4 | D2 [DF]3 D | E2 A,3 A, | B,A, G,3 G, | %447
 A,2 A,4 | D2 D3 D | [CE]2 [A,E]3 C | B,2 [G,G]3 G, | A,2 A,3 A, | D z z4 | AB cA Bc | dc BA GF | %455
 ED A4 | D z z2 z [D_AB] | C/D/C/B,/ A,/C/E/G/ z [_B,Fc] | B,/C/B,/A,/ G,/B,/D/F/ z [^G,E] | %459
 [A,E]/ z/ z z4 | z6 | z6 | z6 | z6 | z6 | z6 | z6 | z2 z4 | z2 z4 | z2 z4 | z2 z4 | z2 z4 | z6 | %473
 z6 | z6 | z6 | F/A,/A,/A,/ A,/ z/ z/ d/ d/A/A/d/ | c/A,/A,/A,/ A,/ z/ z/ c/ c/A/A/c/ | %478
 ^G/A,/A,/A,/ A,/ z/ z/ B/ B/d/d/d/ | c/A,/A,/A,/ A,/A/A/A/ B/B/c/c/ | d/D/D/D/ D/A/A/A/ A/G/G/G/ | %481
 F/D/D/D/ D/d/d/d/ e/e/f/f/ | g/D/D/D/ D/g/g/g/ g/f/f/f/ | %483
 f/e/e/e/ z/ F/F/F/ [Gd]/[Ac]/[Ac]/[Ac]/ | [Dd]2 d3 d | d2 dc B_B | B2 BA GF | F2 z G FE | %488
 DF BA GF | GE AG FE | FD [G,G] z z2 | GF [A,E]4 | A,2 D3 D | =C2 C4 | B,2 E4 | A,2 z4 | %496
 D2 [DA]3 [DA] | [=CD]2 [CD]3 [CD] | [B,G]2 [^CG]3 [CG] | [DF]2 A,2 z2 | FE D3 D | E2 F3 F | %502
 G2 _A3 A | Af A4 | D2 D3 D | A2 D3 D | G2 _A3 A | A2 [A,E]3 [A,E] | z2 D/ z D/ z2 | z2 z4 | %510
 z2 z4 | z2 z4 | D/ z/ z/ D/ D/ z/ z/ D/ D/ z/ z/ D/ | z2 z4 | z2 z4 | z2 [A,E]4 |[K:F] D2 [DF]4 | %517
 C3/2 z/ z2 z C | B,3/2 z/ z2 z B, | A,3/2 z/ z2 z [CE] | D3/2 z/ z4 | [G,DB]3/2 z/ z4 | %522
 [B,F]3/2 z/ z4 | A,G, A,3/2 z/ z2 | z2 z4 | z2 z4 | z2 z4 | z2 z4 | z2 z4 | z2 z4 | z2 z4 | %531
 z2 z4 | z2 z4 | z2 z4 | z2 z4 | z2 z4 | D/ z/ A/ z/ B/ z/ A/ z/ G/ z/ F/ z/ | %537
 C/ z/ B/ z/ A/ z/ G/ z/ F/ z/ E/ z/ | B,/ z/ A/ z/ G/ z/ F/ z/ E/ z/ D/ z/ | %539
 C/ z/ F/ z/ G/ z/ B/ z/ A/ z/ G/ z/ | D/ z/ A/ z/ _A/ z/ G/ z/ ^F/ z/ =F/ z/ | %541
 C/ z/ G/ z/ ^F/ z/ =F/ z/ E/ z/ _E/ z/ | B,/ z/ E/ z/ F/ z/ ^F/ z/ G/ z/ _A/ z/ | %543
 A,/ z/ =B,/ z/ C/ z/ ^C/ z/ D/ z/ E/ z/ | F/ z/ D/ z/ G/ z/ F/ z/ E/ z/ D/ z/ | %545
 E/ z/ C/ z/ F/ z/ E/ z/ D/ z/ C/ z/ | D/ z/ =B,/ z/ E/ z/ D/ z/ ^C/ z/ =B,/ z/ | %547
 ^C/ z/ C/ z/ C/ z/ A,/ z/ =B,/ z/ C/ z/ | D/ z/ z z4 | z2 z4 | z2 z4 | z2 z4 | z2 z4 | z2 z4 | %554
 z2 z4 | z2 z4 | z2 [DF]4 | [DGB]2 [^CGA]4 | [DFA]2 [B,F]4 | G,2 A,2 ^C2 | D z [DF]2 [C^F]2 | %561
 [B,G]2 [A,^F]2 [G,G]2 | z4 D2 | G,2 A,4 | !fermata!D6 |] %565
V:3
 x/ | x8 | x8 | x8 | x8 | x8 | x8 | x8 | x8 | x8 | x8 | x8 | x8 | x8 | x8 | x8 | x8 | x8 | x8 | %19
 x8 | x8 | x8 | x8 | x8 | x8 | x8 | x8 | x8 | x8 | x8 | x8 | x8 | x8 | x8 | x8 | x8 | x8 | x8 | %38
 x8 | x8 | x8 | x8 | x8 | x8 | x8 | x8 | x8 | x8 | x8 | x8 | x8 | x8 | x8 | x8 | x8 | x8 | x8 | %57
 x8 | x8 | x8 | x8 | x8 | x8 | x8 | x8 |[M:3/4] x6 | x6 | x6 | x6 | x6 | x6 | x6 | x6 | x6 | x6 | %75
 x6 | x6 | x6 | x6 | x6 | x6 | x6 | x6 | x6 | x6 | x6 | x6 | x6 | x6 | x6 | x6 | x6 | x6 | x6 | %94
 x6 | x6 | x6 | x6 | x6 | x6 | x6 | x6 | x6 | x6 | x6 | x6 | x6 | x6 | x6 | x6 | x6 | x6 | x6 | %113
 x6 | x6 | x6 | x6 | x6 | x6 | x6 | x6 | x6 | x6 | x6 | x6 | x6 | x6 | x6 | x6 | x6 | x6 | x6 | %132
 x6 | x6 | x6 | x6 | x6 | x6 | x6 | x6 | x6 | x6 | x6 | x6 | x6 | x6 | x6 | x6 | x6 | x6 | x6 | %151
 x6 | x6 | x6 | x6 | x6 | x6 | x6 | x6 | x6 | x6 | x6 | x6 | x6 | x6 | x6 | x6 | x6 | x6 | x6 | %170
 x6 | x6 | x6 | x6 |[M:3/4] x6 |[M:3/4] x6 | x6 | x6 | x6 | x6 | x6 | x6 | z2 e4 | x6 | x6 | x6 | %186
 x6 | x6 | x6 | x6 | z2 e4 | x6 | x6 | x6 | x6 | x6 | x6 | x6 | x6 | x6 | x6 | x6 | x6 | x6 | x6 | %205
 x6 | x6 | x6 | x6 | x6 | x6 | x6 | x6 | x6 | x6 | x6 | x6 | x6 | x6 | x6 | x6 | x6 | x6 | x6 | %224
 x6 | x6 | x6 |[M:12/8] x12 | x12 | x12 | x12 | x12 | x12 | x12 | x12 | x12 | x12 | x12 | x12 | %239
 x12 | x12 | x12 | x12 | x12 | x12 | x12 | x12 | x12 | x12 | x12 | x12 | x12 | x12 | x12 | x12 | %255
 x12 | x12 | x12 | x12 | x12 | x12 | x12 | x12 | x12 | x12 | x12 | x12 | x12 | x12 | x12 | x12 | %271
 x12 | x12 | x12 | x12 | x12 | x12 | x12 | x12 | x12 | x12 | x12 | x12 | x12 | x12 | x12 | x12 | %287
 x12 | x12 | x12 | x12 | x12 | x12 | x12 | x12 | x12 | x12 | x12 | x12 | x12 | x12 | x12 | x12 | %303
 x12 | x12 | x12 | x12 | x12 |[M:3/4] x6 | x6 | x6 | x6 | x6 | x6 | x6 | d2 ^c3/2 z/ z z | %316
 d3 z z2 | B z A z z2 | B z z4 | x6 | x6 | x6 | D z B, z z z/ B,/ | F>G E4 | D z z2 z z/ d/ | x6 | %326
 x6 | x6 | x6 | x6 | x6 | x6 | x6 | x6 | x6 | x6 | x6 | x6 | x6 | x6 | x6 | x6 | x6 | x6 | x6 | %345
 x6 | x6 | x6 | x6 | x6 | x6 | x6 | x6 | x6 | x6 | x6 | x6 | x6 | x6 | x6 | x6 | x6 | x6 | x6 | %364
 x6 | x6 | x6 | x6 | x6 | x6 | x6 | x6 | x6 | x6 | x6 | x6 | x6 | x6 | x6 | x6 | x6 | x6 | x6 | %383
 x6 | x6 | x6 | x6 | x6 | x6 | x6 | x6 | x6 | x6 | x6 | x6 | x6 | x6 | x6 | x6 | x6 | x6 | x6 | %402
 x6 | x6 | x6 | x6 | x6 | x6 | x6 | x6 | x6 | x6 | x6 | x6 | x6 | x6 | x6 | x6 | x6 | x6 | x6 | %421
 x6 | x6 | x6 | x6 | x6 | x6 | x6 | x6 | x6 | x6 | x6 | x6 | x6 | x6 | x6 | x6 | x6 | x6 | x6 | %440
[K:D] x6 | x6 | x6 | x6 | x6 | x6 | x6 | GF z4 | x6 | x6 | F2 B3 G | FD EF ^GE | FE DE FG | c2 z4 | %454
 z4 dB | cd d2 [Ace]2 | x6 | x6 | x6 | x6 | x6 | x6 | x6 | x6 | x6 | x6 | x6 | x6 | x6 | x6 | x6 | %471
 x6 | x6 | x6 | x6 | x6 | x6 | x6 | x6 | x6 | x6 | x6 | x6 | x6 | x6 | x6 | x6 | z2 ^cA Bc | x6 | %489
 x6 | =cd dc BA | x6 | x6 | x6 | G z G3 [EG] | GF ED E2 | x6 | x6 | x6 | A2 EF G2 | x6 | d2 d3 d | %502
 d2 e3 e | e2 e4 | f2 f3 f | e2 f3 f | gd d3 d | d2 c3 c | x6 | x6 | x6 | x6 | x6 | x6 | x6 | x6 | %516
[K:F] x6 | E3/2 z/ z2 z E | D3/2 z/ z4 | x6 | x6 | x6 | x6 | GF E3/2 z/ z2 | x6 | x6 | x6 | x6 | %528
 x6 | x6 | x6 | x6 | x6 | x6 | x6 | x6 | x6 | x6 | x6 | x6 | x6 | x6 | x6 | %543
 A/ z/ A/ z/ A/ z/ A/ z/ =B/ z/ ^c | d/ z/ c/ z/ B/ z/ B/ z/ B/ z/ B | %545
 B/ z/ B/ z/ A/ z/ A/ z/ A/ z/ A | A/ z/ A/ z/ G/ z/ G/ z/ G/ z/ G | %547
 G/ z/ E/ z/ A/ z/ G/ z/ F/ z/ E | x6 | x6 | x6 | x6 | x6 | x6 | x6 | x6 | x6 | x6 | x6 | x6 | x6 | %561
 x6 | x6 | x6 | x6 |] %565
V:4
 x/ | x8 | x8 | x8 | x8 | x8 | x8 | x8 | x8 | x8 | x8 | x8 | x8 | x8 | x8 | x8 | x8 | x8 | x8 | %19
 x8 | x8 | x8 | x8 | x8 | x8 | x8 | x8 | x8 | x8 | x8 | x8 | x8 | x8 | x8 | x8 | x8 | x8 | x8 | %38
 x8 | x8 | x8 | x8 | x8 | x8 | x8 | x8 | x8 | x8 | x8 | x8 | x8 | x8 | x8 | x8 | x8 | x8 | x8 | %57
 x8 | x8 | x8 | x8 | x8 | x8 | x8 | x8 |[M:3/4] x6 | x6 | x6 | x6 | x6 | x6 | x6 | x6 | x6 | x6 | %75
 x6 | x6 | x6 | x6 | x6 | x6 | x6 | x6 | x6 | x6 | x6 | x6 | x6 | x6 | x6 | x6 | x6 | x6 | x6 | %94
 x6 | x6 | x6 | x6 | x6 | x6 | x6 | x6 | x6 | x6 | x6 | x6 | x6 | x6 | x6 | x6 | x6 | x6 | x6 | %113
 x6 | x6 | x6 | x6 | x6 | x6 | x6 | x6 | x6 | x6 | x6 | x6 | x6 | x6 | x6 | x6 | x6 | x6 | x6 | %132
 x6 | x6 | x6 | x6 | x6 | x6 | x6 | x6 | x6 | x6 | x6 | x6 | x6 | x6 | x6 | x6 | x6 | x6 | x6 | %151
 x6 | x6 | x6 | x6 | x6 | x6 | x6 | x6 | x6 | x6 | x6 | x6 | x6 | x6 | x6 | x6 | x6 | x6 | x6 | %170
 x6 | x6 | x6 | x6 |[M:3/4] x6 |[M:3/4] x6 | x6 | x6 | x6 | x6 | x6 | x6 | x6 | x6 | x6 | x6 | x6 | %187
 x6 | x6 | x6 | x6 | x6 | x6 | x6 | x6 | x6 | x6 | x6 | x6 | x6 | x6 | x6 | x6 | x6 | x6 | x6 | %206
 x6 | x6 | x6 | x6 | x6 | x6 | x6 | x6 | x6 | x6 | x6 | x6 | x6 | x6 | x6 | x6 | x6 | x6 | x6 | %225
 x6 | x6 |[M:12/8] x12 | x12 | x12 | x12 | x12 | x12 | x12 | x12 | x12 | x12 | x12 | x12 | x12 | %240
 x12 | x12 | x12 | x12 | x12 | x12 | x12 | x12 | x12 | x12 | x12 | x12 | x12 | x12 | x12 | x12 | %256
 x12 | x12 | x12 | x12 | x12 | x12 | x12 | x12 | x12 | x12 | x12 | x12 | x12 | x12 | x12 | x12 | %272
 x12 | x12 | x12 | x12 | x12 | x12 | x12 | x12 | x12 | x12 | x12 | x12 | x12 | x12 | x12 | x12 | %288
 x12 | x12 | x12 | x12 | x12 | x12 | x12 | x12 | x12 | x12 | x12 | x12 | x12 | x12 | x12 | x12 | %304
 x12 | x12 | x12 | x12 |[M:3/4] x6 | x6 | x6 | x6 | x6 | x6 | x6 | G,2 A,3/2 z/ z2 | x6 | %317
 D z ^C z z2 | D z B, z z z/ G,/ | x6 | x6 | x6 | x6 | x6 | x6 | x6 | x6 | x6 | x6 | x6 | x6 | x6 | %332
 x6 | x6 | x6 | x6 | x6 | x6 | x6 | x6 | x6 | x6 | x6 | x6 | x6 | x6 | x6 | x6 | x6 | x6 | x6 | %351
 x6 | x6 | x6 | x6 | x6 | x6 | x6 | x6 | x6 | x6 | x6 | x6 | x6 | x6 | x6 | x6 | x6 | x6 | x6 | %370
 x6 | x6 | x6 | x6 | x6 | x6 | x6 | x6 | x6 | x6 | x6 | x6 | x6 | x6 | x6 | x6 | x6 | x6 | x6 | %389
 x6 | x6 | x6 | x6 | x6 | x6 | x6 | x6 | x6 | x6 | x6 | x6 | x6 | x6 | x6 | x6 | x6 | x6 | x6 | %408
 x6 | x6 | x6 | x6 | x6 | x6 | x6 | x6 | x6 | x6 | x6 | x6 | x6 | x6 | x6 | x6 | x6 | x6 | x6 | %427
 x6 | x6 | x6 | x6 | x6 | x6 | x6 | x6 | x6 | x6 | x6 | x6 | x6 |[K:D] x6 | x6 | x6 | x6 | x6 | %445
 x6 | x6 | x6 | x6 | x6 | x6 | x6 | x6 | x6 | x6 | x6 | x6 | x6 | x6 | x6 | x6 | x6 | x6 | x6 | %464
 x6 | x6 | x6 | x6 | x6 | x6 | x6 | x6 | x6 | x6 | x6 | x6 | x6 | x6 | x6 | x6 | x6 | x6 | x6 | %483
 x6 | x6 | x6 | x6 | x6 | x6 | x6 | x6 | x6 | x6 | x6 | x6 | x6 | x6 | x6 | x6 | x6 | x6 | x6 | %502
 x6 | x6 | x6 | x6 | x6 | x6 | x6 | x6 | x6 | x6 | x6 | x6 | x6 | x6 |[K:F] x6 | x6 | x6 | x6 | %520
 x6 | x6 | x6 | x6 | x6 | x6 | x6 | x6 | x6 | x6 | x6 | x6 | x6 | x6 | x6 | x6 | x6 | x6 | x6 | %539
 x6 | x6 | x6 | x6 | x6 | x6 | x6 | x6 | x6 | x6 | x6 | x6 | x6 | x6 | x6 | x6 | x6 | x6 | x6 | %558
 x6 | x6 | x6 | x6 | x6 | x6 | x6 |] %565

